svgs/thin/book-bible.svg

<svg xmlns="http://www.w3.org/2000/svg" viewBox="0 0 448 512"><!--! Font Awesome Pro 6.6.0 by @fontawesome - https://fontawesome.com License - https://fontawesome.com/license (Commercial License) Copyright 2024 Fonticons, Inc. --><path d="M0 56C0 25.1 25.1 0 56 0L408 0c22.1 0 40 17.9 40 40l0 336c0 19.4-13.7 35.5-32 39.2l0 80.8 24 0c4.4 0 8 3.6 8 8s-3.6 8-8 8L56 512c-30.9 0-56-25.1-56-56L0 56zM56 416c-22.1 0-40 17.9-40 40s17.9 40 40 40l344 0 0-80L56 416zm-40 .8C26.2 406.4 40.3 400 56 400l352 0c13.3 0 24-10.7 24-24l0-336c0-13.3-10.7-24-24-24L56 16C33.9 16 16 33.9 16 56l0 360.8zM224 80l32 0c13.3 0 24 10.7 24 24l0 40 40 0c13.3 0 24 10.7 24 24l0 32c0 13.3-10.7 24-24 24l-40 0 0 88c0 13.3-10.7 24-24 24l-32 0c-13.3 0-24-10.7-24-24l0-88-40 0c-13.3 0-24-10.7-24-24l0-32c0-13.3 10.7-24 24-24l40 0 0-40c0-13.3 10.7-24 24-24zm-8 24l0 48c0 4.4-3.6 8-8 8l-48 0c-4.4 0-8 3.6-8 8l0 32c0 4.4 3.6 8 8 8l48 0c4.4 0 8 3.6 8 8l0 96c0 4.4 3.6 8 8 8l32 0c4.4 0 8-3.6 8-8l0-96c0-4.4 3.6-8 8-8l48 0c4.4 0 8-3.6 8-8l0-32c0-4.4-3.6-8-8-8l-48 0c-4.4 0-8-3.6-8-8l0-48c0-4.4-3.6-8-8-8l-32 0c-4.4 0-8 3.6-8 8z"/></svg>

<svg xmlns="http://www.w3.org/2000/svg" viewBox="0 0 448 512"><!--! Font Awesome Pro 6.5.2 by @fontawesome - https://fontawesome.com License - https://fontawesome.com/license (Commercial License) Copyright 2024 Fonticons, Inc. --><path d="M0 56C0 25.1 25.1 0 56 0H408c22.1 0 40 17.9 40 40V376c0 19.4-13.7 35.5-32 39.2V496h24c4.4 0 8 3.6 8 8s-3.6 8-8 8H56c-30.9 0-56-25.1-56-56V56zM56 416c-22.1 0-40 17.9-40 40s17.9 40 40 40H400V416H56zm-40 .8C26.2 406.4 40.3 400 56 400H408c13.3 0 24-10.7 24-24V40c0-13.3-10.7-24-24-24H56C33.9 16 16 33.9 16 56V416.8zM224 80h32c13.3 0 24 10.7 24 24v40h40c13.3 0 24 10.7 24 24v32c0 13.3-10.7 24-24 24H280v88c0 13.3-10.7 24-24 24H224c-13.3 0-24-10.7-24-24V224H160c-13.3 0-24-10.7-24-24V168c0-13.3 10.7-24 24-24h40V104c0-13.3 10.7-24 24-24zm-8 24v48c0 4.4-3.6 8-8 8H160c-4.4 0-8 3.6-8 8v32c0 4.4 3.6 8 8 8h48c4.4 0 8 3.6 8 8v96c0 4.4 3.6 8 8 8h32c4.4 0 8-3.6 8-8V216c0-4.4 3.6-8 8-8h48c4.4 0 8-3.6 8-8V168c0-4.4-3.6-8-8-8H272c-4.4 0-8-3.6-8-8V104c0-4.4-3.6-8-8-8H224c-4.4 0-8 3.6-8 8z"/></svg>
